assets/icons/emote/cool-filled.svg

<?xml version="1.0" encoding="UTF-8" standalone="no"?>
<svg
   viewBox="0 0 24 24"
   width="24"
   height="24"
   version="1.1"
   id="svg4"
   sodipodi:docname="cool-filled.svg"
   inkscape:version="1.2 (1:1.2.1+202207142221+cd75a1ee6d)"
   xmlns:inkscape="http://www.inkscape.org/namespaces/inkscape"
   xmlns:sodipodi="http://sodipodi.sourceforge.net/DTD/sodipodi-0.dtd"
   xmlns="http://www.w3.org/2000/svg"
   xmlns:svg="http://www.w3.org/2000/svg"
   xmlns:rdf="http://www.w3.org/1999/02/22-rdf-syntax-ns#"
   xmlns:cc="http://creativecommons.org/ns#"
   xmlns:dc="http://purl.org/dc/elements/1.1/">
  <metadata
     id="metadata10">
    <rdf:RDF>
      <cc:Work
         rdf:about="">
        <dc:format>image/svg+xml</dc:format>
        <dc:type
           rdf:resource="http://purl.org/dc/dcmitype/StillImage" />
      </cc:Work>
    </rdf:RDF>
  </metadata>
  <defs
     id="defs8" />
  <sodipodi:namedview
     pagecolor="#ffffff"
     bordercolor="#666666"
     borderopacity="1"
     objecttolerance="10"
     gridtolerance="10"
     guidetolerance="10"
     inkscape:pageopacity="0"
     inkscape:pageshadow="2"
     inkscape:window-width="1920"
     inkscape:window-height="1016"
     id="namedview6"
     showgrid="true"
     inkscape:zoom="22.627417"
     inkscape:cx="2.8726213"
     inkscape:cy="8.6841552"
     inkscape:window-x="0"
     inkscape:window-y="0"
     inkscape:window-maximized="1"
     inkscape:current-layer="svg4"
     inkscape:pagecheckerboard="0"
     inkscape:showpageshadow="2"
     inkscape:deskcolor="#d1d1d1">
    <inkscape:grid
       type="xygrid"
       id="grid1406" />
  </sodipodi:namedview>
  <path
     id="path1232"
     style="opacity:1;fill:#808080;fill-rule:evenodd;stroke:none;stroke-width:1;stroke-linecap:round"
     d="M 12 2.625 A 9.375 9.375 0 0 0 2.625 12 A 9.375 9.375 0 0 0 12 21.375 A 9.375 9.375 0 0 0 21.375 12 A 9.375 9.375 0 0 0 12 2.625 z M 5.125 8.875 L 10.125 8.875 L 11.375 8.875 L 13.875 8.875 L 18.875 8.875 A 3.125 3.75 0 0 1 15.75 12.625 A 3.125 3.75 0 0 1 12.802734 10.125 L 11.197266 10.125 A 3.125 3.75 0 0 1 8.25 12.625 A 3.125 3.75 0 0 1 5.125 8.875 z M 6.375 13.875 C 8.6179868 15.504309 15.332454 15.504309 17.625 13.875 L 17.589844 14.539062 C 17.581086 14.6543 17.510651 14.931848 17.382812 15.269531 C 14.939139 16.725065 8.7523213 16.700621 6.4882812 15.193359 C 6.4199274 14.963347 6.375 14.76405 6.375 14.65625 L 6.375 13.875 z " />
</svg>

<svg width="24" height="24" xmlns="http://www.w3.org/2000/svg"><path style="opacity:1;fill:gray;stroke:none;stroke-width:1;stroke-linecap:round" d="M12 2.625A9.375 9.375 0 0 0 2.625 12 9.375 9.375 0 0 0 12 21.375 9.375 9.375 0 0 0 21.375 12 9.375 9.375 0 0 0 12 2.625zm-6.875 6.25h13.75a3.125 3.75 0 0 1-3.125 3.75 3.125 3.75 0 0 1-2.947-2.5h-1.606a3.125 3.75 0 0 1-2.947 2.5 3.125 3.75 0 0 1-3.125-3.75zm1.25 5c2.243 1.63 8.957 1.63 11.25 0l-.035.664c-.009.115-.08.393-.207.73-2.444 1.456-8.63 1.432-10.895-.076-.068-.23-.113-.429-.113-.537v-.781z"/></svg>
